X:1
T:Slipstenspolska
R:polska
Z:Erik Ronström 2008-09-16
O:Hälsingland
C:Snickar-Erik Olsson
N:Se även +
M:3/4
L:1/16
K:A
N: Se även klipp på Youtube.
a2|:gafg efde cdBc|A2a2 gafg e2a2|gafg efde cdBc|A2a2 gafg e2c2|
Acec Acec Acec|Eded Fded Gded|Acec Acec Acec|Eded Fded Gded|
A3A BABd c4|c3c dcdf f2e2|e2fg agfe dcBA|1 GABG A6 a2:|2 GABG A8|
|:A,CEC A,CEC A,CEC|DFAF DFAF DFAF|EGBG EGBG EGBG|Acec Acec Acec|
B^dfd Bdfd Bdfd|egbg egbg egbg|e2fg agfe dcBA|GABG A8:|

